X: 7
T: Wonder, The
C: James Hill
Z: leprecawn
S: https://thesession.org/tunes/337#setting50054
R: hornpipe
M: 4/4
L: 1/8
K: Gmaj
(3DEF||:GABG FGAF|GABG D2 GF|EAcB AGFE|Ddd^c d2 (3DEF |
GABG FGAF|GABG D2GF|EAcB AGFE|DFAF G2:|
||:GA B2 Bc BA |GF EccB c2 | cB A2 AG FG | FE Ddd^c d2 |
GA B2 Bc BA |GF EccB c2|cB A2 AG FG |FE DFAF G2 :||

